X: 1
T: String Quartet in E\b Major opus 50 no 3 mvt 3
C: Franz Joseph Haydn
%%abc-version 2.0
%%abcx-abcm2ps-target-version 5.9.1 (29 Sep 2008)
%%abc-creator hum2abc beta
%%abcx-conversion-date 2021/02/14 14:38:19
%%abc-copyright Copyright (c) 1994, 2000 Center for Computer Assisted Research in the Humanities
%%abc-edited-by Frances Bennion
%%abcx-initial-encoding-date 1997/04/15
%%gracespace 0 6 6
%%humdrum-veritas 4267184898
%%humdrum-veritas-data 483048937
%%linebreak <none>
%%barnumbers 0
L: 1/4
M: 3/4
N: Derived from op50n3-03.krn
Q: "Menuetto: Allegretto"
%%staves [1 2 3 4]
V: 1
V: 2
V: 3 clef=alto
V: 4 clef=bass
K: Eb
[V:1]z2 E [I:setbarnb1] |
[V:2]z2 G, |
[V:3]z2 z |
[V:4]z2 z |
[V:1]E G G |
[V:2]G, E E |
[V:3]B,2 z |
[V:4]E,2 z |
[V:1]G B e |
[V:2]E G G |
[V:3]B,2 B |
[V:4]E,2 E |
[V:1]e d f |
[V:2]A2 B |
[V:3]B2 d |
[V:4]F2 A |
[V:1]f z b |
[V:2]B z2 |
[V:3]d z2 |
[V:4]A z2 |
[V:1]b f b |
[V:2]d3 |
[V:3]A3 |
[V:4]z3 |
[V:1]b =e b |
[V:2]_d3 |
[V:3]G3 |
[V:4]z3 |
[V:1]b =a c' |
[V:2]c2 e |
[V:3]E2 =A, |
[V:4]F,3 |
[V:1]f2 a |
[V:2]e d f |
[V:3]B, F D |
[V:4]B,2 B,, |
[V:1]a g b |
[V:2]B2 E |
[V:3]E2 B, |
[V:4]E,2 G, |
[V:1]c a f |
[V:2]E c A |
[V:3]C A, A, |
[V:4]A,3 |
[V:1]d B [Ge] |
[V:2]F D [B,G] |
[V:3]B,2 E, |
[V:4]B,2 E,, |
[V:1][eG] z B |
[V:2][EG,] z2 |
[V:3]E, z2 |
[V:4]E,, z2 |
[V:1]B _c c |
[V:2]z A A |
[V:3]z F F |
[V:4]z D D |
[V:1]_c2 b |
[V:2]A2 z |
[V:3]F2 z |
[V:4]D2 z |
[V:1]b a a |
[V:2]z f f |
[V:3]z d d |
[V:4]z3 |
[V:1]a2 B |
[V:2]f3 |
[V:3]d2 z |
[V:4]z3 |
[V:1]B _c c |
[V:2]z A A |
[V:3]z F F |
[V:4]z _D D |
[V:1]_c2 a |
[V:2]A2 _c |
[V:3]F2 z |
[V:4]_D2 z |
[V:1]a _g g |
[V:2]_c B B |
[V:3]z _D D |
[V:4]z _G, G, |
[V:1]_g2 _d |
[V:2]B3 |
[V:3]_D3- |
[V:4]_G,3 |
[V:1]_d B B |
[V:2]_G3- |
[V:3]D3 |
[V:4]B,,3 |
[V:1]B A A |
[V:2]G3 |
[V:3]E3 |
[V:4]_C,3 |
[V:1]_c A F |
[V:2]F3 |
[V:3]A,2 _C |
[V:4]_D,3 |
[V:1]F _G _d' |
[V:2]F _G G |
[V:3]_C B, z |
[V:4]E,2 z |
[V:1]_d' b b |
[V:2]_G3- |
[V:3]_D3 |
[V:4]B,,3 |
[V:1]b a a |
[V:2]G3 |
[V:3]E3 |
[V:4]_C,3 |
[V:1]_c' a f |
[V:2]F A _c |
[V:3]A,3 |
[V:4]_D,3 |
[V:1]a _g b |
[V:2]=B _B _g |
[V:3]_G,2 z |
[V:4]_G,,2 z |
[V:1]b a a |
[V:2]_g f f |
[V:3]z2 _c |
[V:4]z3 |
[V:1]a2 a |
[V:2]f2 f |
[V:3]_c B B |
[V:4]z3 |
[V:1]a _g g |
[V:2]f e e |
[V:3]B2 B |
[V:4]z3 |
[V:1]_g2 g |
[V:2]e2 e |
[V:3]B =A A |
[V:4]z3 |
[V:1]_g f f |
[V:2]e d d |
[V:3]=A B B |
[V:4]z2 B,, |
[V:1]f2 =a |
[V:2]d2 e |
[V:3]B z E |
[V:4]B,, _C, C, |
[V:1]=a b b |
[V:2]e d d |
[V:3]E F F |
[V:4]_C, B,, B,, |
[V:1]b z E |
[V:2]d z G, |
[V:3]F z2 |
[V:4]B,, z2 |
[V:1]E G G |
[V:2]G, E E |
[V:3]B,2 z |
[V:4]E,2 z |
[V:1]G B e |
[V:2]E G G |
[V:3]B,2 B |
[V:4]E,2 E |
[V:1]e d f |
[V:2]A2 B |
[V:3]B2 d |
[V:4]F2 A |
[V:1]f z b |
[V:2]B z2 |
[V:3]d z2 |
[V:4]A z2 |
[V:1]b f b |
[V:2]d3 |
[V:3]A3 |
[V:4]z3 |
[V:1]b =e b |
[V:2]_d3 |
[V:3]G3 |
[V:4]z3 |
[V:1]b =a c' |
[V:2]c2 e |
[V:3]E2 =A, |
[V:4]F,3 |
[V:1]f2 a |
[V:2]e d f |
[V:3]B, F D |
[V:4]B,2 B,, |
[V:1]a g b |
[V:2]B2 E |
[V:3]E2 B, |
[V:4]E,2 G, |
[V:1]c a f |
[V:2]E c A |
[V:3]C z2 |
[V:4]A,3 |
[V:1]d B d |
[V:2]F D B |
[V:3]z3 |
[V:4]B,2 B, |
[V:1]e3- |
[V:2]=A3- |
[V:3]z3 |
[V:4]=B, C C |
[V:1]e2 e |
[V:2]A2 =A |
[V:3]z3 |
[V:4]C2 C |
[V:1]f3- |
[V:2]A3- |
[V:3]z3 |
[V:4]^C D D |
[V:1]f2 B |
[V:2]A2 z |
[V:3]z3 |
[V:4]D2 z |
[V:1]B D B |
[V:2]A3 |
[V:3]F3 |
[V:4]z3 |
[V:1]B E z |
[V:2]G3 |
[V:3]E3 |
[V:4]z2 B,, |
[V:1]a3 |
[V:2]f3 |
[V:3]D3 |
[V:4]B,, D,, B,, |
[V:1]g3 |
[V:2]e2 B |
[V:3]E3 |
[V:4]B,, E,, E, |
[V:1]f e d |
[V:2]A G F |
[V:3]C B, A, |
[V:4]A,, B,, B,, |
[V:1]e z B |
[V:2]E z B |
[V:3]G, z G |
[V:4]E,, z2 |
[V:1]B e e |
[V:2]B/G/ c/B/ c/B/ |
[V:3]G/E/ A/G/ A/G/ |
[V:4]E, z2 |
[V:1]e2 e |
[V:2]c/B/ e/d/ c/B/ |
[V:3]A/G/ c/B/ A/G/ |
[V:4]z3 |
[V:1]d f f |
[V:2]A/B/ c/B/ A/G/ |
[V:3]F/G/ A/G/ F/E/ |
[V:4]B,, z2 |
[V:1]f/g/ a/g/ f/e/ |
[V:2]F/E/ D/E/ F/G/ |
[V:3]D/C/ B,/C/ D/E/ |
[V:4]z3 |
[V:1]d/e/ f/e/ d/c/ |
[V:2]A/B/ c/B/ A/G/ |
[V:3]F/G/ A/G/ F/E/ |
[V:4]B,, z2 |
[V:1]B c d |
[V:2]F/E/ D/C/ B,/A,/ |
[V:3]D/C/ B,/A,/ G,/F,/ |
[V:4]B,, z2 |
[V:1]e/B/ G/B/ A/F/ |
[V:2]G,/B,/ E/G/ F/D/ |
[V:3]E,/G,/ B,/E/ F/A/ |
[V:4]E,, z B,, |
[V:1]E z c |
[V:2]E z G |
[V:3]G z E |
[V:4]E, z2 |
[V:1]c/=B/ d/B/ c/e/ |
[V:2]F A G |
[V:3]D F E |
[V:4]z3 |
[V:1]e/d/ f/d/ e/g/ |
[V:2]G3 |
[V:3]=B,2 C |
[V:4]z3 |
[V:1]B/=A/ c/A/ B/d/ |
[V:2]F3- |
[V:3]E2 D |
[V:4]z3 |
[V:1]d/c/ e/c/ d/e/ |
[V:2]F2 z |
[V:3]=A,2 B,/C/ |
[V:4]z3 |
[V:1]f/d/ g/f/ g/f/ |
[V:2]z3 |
[V:3]D/B,/ E/D/ E/D/ |
[V:4]B,, z2 |
[V:1]d'/c'/ b/=a/ g/f/ |
[V:2]z3 |
[V:3]B/=A/ G/F/ E/D/ |
[V:4]B,, z2 |
[V:1]e/d/ c/B/ =A/c/ |
[V:2]z3 |
[V:3]G/F/ E/D/ C/=A,/ |
[V:4]E, z F, |
[V:1]B z2 |
[V:2]z2 B/A/ |
[V:3]B, z G/F/ |
[V:4]B,/=A,/ B,/A,/ B,/C/ |
[V:1]z3 |
[V:2]G2 A |
[V:3]=E2 F |
[V:4]_D/C/ D/C/ A,/F,/ |
[V:1]z3 |
[V:2]F2 G |
[V:3]D2 E |
[V:4]_C/B,/ C/B,/ G,/E,/ |
[V:1]z3 |
[V:2]F/G/ A/G/ F/E/ |
[V:3]C/B,/ A,/B,/ C |
[V:4]A,/G,/ F,/G,/ A,/=A,/ |
[V:1]z2 B |
[V:2]D z B |
[V:3]B, z G |
[V:4]B,/C/ B,/A,/ G,/F,/ |
[V:1]B e e |
[V:2]B/G/ c/B/ c/B/ |
[V:3]G/E/ A/G/ A/G/ |
[V:4]E, z2 |
[V:1]e2 e |
[V:2]c/B/ e/d/ c/B/ |
[V:3]A/G/ c/B/ A/G/ |
[V:4]z3 |
[V:1]d f f |
[V:2]A/B/ c/B/ A/G/ |
[V:3]F/G/ A/G/ F/E/ |
[V:4]B,, z2 |
[V:1]f/g/ a/g/ f/e/ |
[V:2]F/E/ D/E/ F/G/ |
[V:3]D/C/ B,/C/ D/E/ |
[V:4]z3 |
[V:1]d/e/ f/e/ d/c/ |
[V:2]A/B/ c/B/ A/G/ |
[V:3]F/G/ A/G/ F/E/ |
[V:4]B,, z2 |
[V:1]B/A/ G/F/ E/D/ |
[V:2]F/E/ D/C/ B,/A,/ |
[V:3]D/C/ B,/A,/ G,/F,/ |
[V:4]B,, z2 |
[V:1]E/B/ G/B/ A/F/ |
[V:2]G,/B,/ E/G/ F/D/ |
[V:3]E,/G,/ B,/E/ F/A/ |
[V:4]E,, z B,, |
[V:1]E z2 |]
[V:2]E z2 |]
[V:3]G z2 |]
[V:4]E, z2 |]

